X:1
T:WE HAVE SOWN OUR WHEAT
M:2/4
Q:1/4=120
K:Eb
G2G2G2A2|B4B2c2|B2A2G4|G2G2G2A2|B4B2c2|c2B2A4|
G2G2G2G2|A4G2A2|G2F2E4|G2G2G2G2|A4G2A2|G2F2E7/2||
